graphics/svgs/icons/benchmark-b.svg

<?xml version="1.0" encoding="UTF-8" standalone="no"?>
<svg
   xmlns:dc="http://purl.org/dc/elements/1.1/"
   xmlns:cc="http://creativecommons.org/ns#"
   xmlns:rdf="http://www.w3.org/1999/02/22-rdf-syntax-ns#"
   xmlns:svg="http://www.w3.org/2000/svg"
   xmlns="http://www.w3.org/2000/svg"
   version="1.1"
   id="svg4734"
   xml:space="preserve"
   width="64.426666"
   height="64.426666"
   viewBox="0 0 64.426666 64.426666">
  <metadata
   id="metadata4740">
    <rdf:RDF>
      <cc:Work
   rdf:about="">
        <dc:format>image/svg+xml</dc:format>

        <dc:type
   rdf:resource="http://purl.org/dc/dcmitype/StillImage" />

        <dc:title></dc:title>

      </cc:Work>

    </rdf:RDF>

  </metadata>

  <defs
   id="defs4738">
    
  
      
    
        
      
          
        
            
            
            
            
            
            
            
            
          
              
            
              
            
              
            
              
            
              
            
              
            
                
              </defs>

  <path
   id="path4849"
   d="m 15.2745,64.426334 c -8.413294,0 -15.27604053,-6.862747 -15.27604053,-15.276041 V 15.277898 C -0.00154053,6.8646032 6.861206,0.00185616 15.2745,0.00185616 h 33.875 c 8.413294,0 15.276041,6.86274704 15.276041,15.27604184 v 33.872395 c 0,8.413294 -6.862747,15.276041 -15.276041,15.276041 z"
   style="color:#000000;font-style:normal;font-variant:normal;font-weight:normal;font-stretch:normal;font-size:medium;line-height:normal;font-family:sans-serif;font-variant-ligatures:normal;font-variant-position:normal;font-variant-caps:normal;font-variant-numeric:normal;font-variant-alternates:normal;font-variant-east-asian:normal;font-feature-settings:normal;font-variation-settings:normal;text-indent:0;text-align:start;text-decoration:none;text-decoration-line:none;text-decoration-style:solid;text-decoration-color:#000000;letter-spacing:normal;word-spacing:normal;text-transform:none;writing-mode:lr-tb;direction:ltr;text-orientation:mixed;dominant-baseline:auto;baseline-shift:baseline;text-anchor:start;white-space:normal;shape-padding:0;shape-margin:0;inline-size:0;clip-rule:nonzero;display:inline;overflow:visible;visibility:visible;opacity:1;isolation:auto;mix-blend-mode:normal;color-interpolation:sRGB;color-interpolation-filters:linearRGB;solid-color:#000000;solid-opacity:1;vector-effect:none;fill:#283891;fill-opacity:1;fill-rule:nonzero;stroke:none;stroke-width:3.98511;stroke-linecap:butt;stroke-linejoin:miter;stroke-miterlimit:10;stroke-dasharray:none;stroke-dashoffset:0;stroke-opacity:1;color-rendering:auto;image-rendering:auto;shape-rendering:auto;text-rendering:auto;enable-background:accumulate;stop-color:#000000;stop-opacity:1" />
<path
   id="path4790"
   style="color:#000000;font-style:normal;font-variant:normal;font-weight:normal;font-stretch:normal;font-size:medium;line-height:normal;font-family:sans-serif;font-variant-ligatures:normal;font-variant-position:normal;font-variant-caps:normal;font-variant-numeric:normal;font-variant-alternates:normal;font-variant-east-asian:normal;font-feature-settings:normal;font-variation-settings:normal;text-indent:0;text-align:start;text-decoration:none;text-decoration-line:none;text-decoration-style:solid;text-decoration-color:#000000;letter-spacing:normal;word-spacing:normal;text-transform:none;writing-mode:lr-tb;direction:ltr;text-orientation:mixed;dominant-baseline:auto;baseline-shift:baseline;text-anchor:start;white-space:normal;shape-padding:0;shape-margin:0;inline-size:0;clip-rule:nonzero;display:inline;overflow:visible;visibility:visible;opacity:1;isolation:auto;mix-blend-mode:normal;color-interpolation:sRGB;color-interpolation-filters:linearRGB;solid-color:#000000;solid-opacity:1;vector-effect:none;fill:#fdfdfe;fill-opacity:1;fill-rule:nonzero;stroke:none;stroke-width:2.65673;stroke-linecap:round;stroke-linejoin:miter;stroke-miterlimit:10;stroke-dasharray:none;stroke-dashoffset:0;stroke-opacity:1;color-rendering:auto;image-rendering:auto;shape-rendering:auto;text-rendering:auto;enable-background:accumulate;stop-color:#000000;stop-opacity:1"
   d="m 53.134766,14.28125 c -2.208832,0 -3.984375,1.777496 -3.984375,3.986328 0,2.208802 1.775545,3.984375 3.984375,3.984375 2.2088,0 3.984375,-1.775577 3.984375,-3.984375 0,-2.208828 -1.775573,-3.986328 -3.984375,-3.986328 z M 39.248047,20.617188 33.5,28.283203 l 2.212891,1.476563 3.410156,-4.546875 1.796875,2.697265 1.689453,-2.251953 z m 9.34375,0.388671 -8.048828,10.728516 c 1.346133,0.357259 2.482897,1.227935 3.1875,2.392578 L 51.777344,23.398438 C 50.431632,23.041589 49.296691,22.16966 48.591797,21.005859 Z m -23.353516,2.574219 c -2.208815,0 -3.984375,1.775545 -3.984375,3.984375 0,2.2088 1.77556,3.986328 3.984375,3.986328 2.208815,0 3.984375,-1.777528 3.984375,-3.986328 0,-2.20883 -1.77556,-3.984375 -3.984375,-3.984375 z m 5.201172,5.056641 c -0.282676,1.370417 -1.095108,2.549162 -2.212891,3.314453 l 5.757813,3.83789 c 0.283224,-1.370265 1.096403,-2.54821 2.214844,-3.3125 z m -9.744141,1.666015 -8.044921,10.728516 c 1.344708,0.358041 2.479471,1.230361 3.183593,2.394531 l 8.044922,-10.728515 c -1.344714,-0.35775 -2.47923,-1.230639 -3.183594,-2.394532 z m 26.601563,2.388672 -1.6875,2.251953 6.419922,9.63086 c 0.407332,0.6098 1.231758,0.774161 1.841797,0.367187 0.60859,-0.407241 0.772829,-1.230181 0.367187,-1.839844 z m -8.111328,0.1875 c -2.208815,0 -3.984375,1.775561 -3.984375,3.984375 0,2.208815 1.77556,3.984375 3.984375,3.984375 2.208815,0 3.984375,-1.77556 3.984375,-3.984375 0,-2.208814 -1.77556,-3.984375 -3.984375,-3.984375 z m -10.474609,1.791016 -4.285157,5.714844 -5.091797,1.697265 -2.751953,3.669922 c 0.0012,0.01548 8.89e-4,0.03136 0.002,0.04687 l 9.466797,-3.15625 4.873047,-6.498047 z m -17.419922,7.505859 c -2.208803,0 -3.9843754,1.779454 -3.9843754,3.988281 0,2.208799 1.7755777,3.984376 3.9843754,3.984376 2.208828,0 3.984375,-1.775573 3.984375,-3.984376 0,-2.208831 -1.775543,-3.988281 -3.984375,-3.988281 z" />

</svg>

<?xml version="1.0" encoding="UTF-8" standalone="no"?>
<svg
   xmlns:dc="http://purl.org/dc/elements/1.1/"
   xmlns:cc="http://creativecommons.org/ns#"
   xmlns:rdf="http://www.w3.org/1999/02/22-rdf-syntax-ns#"
   xmlns:svg="http://www.w3.org/2000/svg"
   xmlns="http://www.w3.org/2000/svg"
   xmlns:sodipodi="http://sodipodi.sourceforge.net/DTD/sodipodi-0.dtd"
   xmlns:inkscape="http://www.inkscape.org/namespaces/inkscape"
   inkscape:version="1.0beta1 (32d4812, 2019-09-19)"
   sodipodi:docname="benchmark-b.svg"
   viewBox="0 0 64.426666 64.426666"
   height="64.426666"
   width="64.426666"
   xml:space="preserve"
   id="svg4734"
   version="1.1">
  <metadata
     id="metadata4740">
    <rdf:RDF>
      <cc:Work
         rdf:about="">
        <dc:format>image/svg+xml</dc:format>
        <dc:type
           rdf:resource="http://purl.org/dc/dcmitype/StillImage" />
        <dc:title></dc:title>
      </cc:Work>
    </rdf:RDF>
  </metadata>
  <defs
     id="defs4738" />
  <sodipodi:namedview
     inkscape:current-layer="g4742"
     inkscape:window-maximized="0"
     inkscape:window-y="23"
     inkscape:window-x="0"
     inkscape:cy="32.213333"
     inkscape:cx="32.213333"
     inkscape:zoom="11.128932"
     showgrid="false"
     id="namedview4736"
     inkscape:window-height="907"
     inkscape:window-width="1600"
     inkscape:pageshadow="2"
     inkscape:pageopacity="0"
     guidetolerance="10"
     gridtolerance="10"
     objecttolerance="10"
     borderopacity="1"
     inkscape:document-rotation="0"
     bordercolor="#666666"
     pagecolor="#ffffff" />
  <g
     transform="matrix(1.3333333,0,0,-1.3333333,0,64.426667)"
     inkscape:label="benchmark-w"
     inkscape:groupmode="layer"
     id="g4742">
    <g
       transform="translate(72,-23.681)"
       id="g4744">
      <g
         transform="translate(-47.841,65.275)"
         id="g4746">
        <g
           id="g4748">
          <g
             id="g4750">
            <g
               id="g4752">
              <g
                 style="opacity:1"
                 id="g4845">
                <path
                   id="path4849"
                   d="m -12.703125,-41.59375 c -6.309971,0 -11.457031,5.14706 -11.457031,11.457031 v 25.4042971 c 0,6.3099709 5.14706,11.4570313 11.457031,11.4570313 h 25.40625 c 6.309971,0 11.457031,-5.1470604 11.457031,-11.4570313 V -30.136719 c 0,-6.309971 -5.14706,-11.457031 -11.457031,-11.457031 z"
                   style="color:#000000;font-style:normal;font-variant:normal;font-weight:normal;font-stretch:normal;font-size:medium;line-height:normal;font-family:sans-serif;font-variant-ligatures:normal;font-variant-position:normal;font-variant-caps:normal;font-variant-numeric:normal;font-variant-alternates:normal;font-variant-east-asian:normal;font-feature-settings:normal;font-variation-settings:normal;text-indent:0;text-align:start;text-decoration:none;text-decoration-line:none;text-decoration-style:solid;text-decoration-color:#000000;letter-spacing:normal;word-spacing:normal;text-transform:none;writing-mode:lr-tb;direction:ltr;text-orientation:mixed;dominant-baseline:auto;baseline-shift:baseline;text-anchor:start;white-space:normal;shape-padding:0;shape-margin:0;inline-size:0;clip-rule:nonzero;display:inline;overflow:visible;visibility:visible;isolation:auto;mix-blend-mode:normal;color-interpolation:sRGB;color-interpolation-filters:linearRGB;solid-color:#000000;solid-opacity:1;vector-effect:none;fill:#283891;fill-opacity:1;fill-rule:nonzero;stroke:none;stroke-width:2.98883;stroke-linecap:butt;stroke-linejoin:miter;stroke-miterlimit:10;stroke-dasharray:none;stroke-dashoffset:0;stroke-opacity:1.0;filter-blend-mode:normal;filter-gaussianBlur-deviation:0;color-rendering:auto;image-rendering:auto;shape-rendering:auto;text-rendering:auto;enable-background:accumulate;stop-color:#000000;stop-opacity:1;" />
              </g>
            </g>
            <g
               id="g4756">
              <path
                 transform="matrix(0.75000002,0,0,-0.75000002,-24.159,6.7260015)"
                 d="M 53.134766 14.28125 C 50.925934 14.28125 49.150391 16.058746 49.150391 18.267578 C 49.150391 20.47638 50.925936 22.251953 53.134766 22.251953 C 55.343566 22.251953 57.119141 20.476376 57.119141 18.267578 C 57.119141 16.05875 55.343568 14.28125 53.134766 14.28125 z M 39.248047 20.617188 L 33.5 28.283203 L 35.712891 29.759766 L 39.123047 25.212891 L 40.919922 27.910156 L 42.609375 25.658203 L 39.248047 20.617188 z M 48.591797 21.005859 L 40.542969 31.734375 C 41.889102 32.091634 43.025866 32.96231 43.730469 34.126953 L 51.777344 23.398438 C 50.431632 23.041589 49.296691 22.16966 48.591797 21.005859 z M 25.238281 23.580078 C 23.029466 23.580078 21.253906 25.355623 21.253906 27.564453 C 21.253906 29.773253 23.029466 31.550781 25.238281 31.550781 C 27.447096 31.550781 29.222656 29.773253 29.222656 27.564453 C 29.222656 25.355623 27.447096 23.580078 25.238281 23.580078 z M 30.439453 28.636719 C 30.156777 30.007136 29.344345 31.185881 28.226562 31.951172 L 33.984375 35.789062 C 34.267599 34.418797 35.080778 33.240852 36.199219 32.476562 L 30.439453 28.636719 z M 20.695312 30.302734 L 12.650391 41.03125 C 13.995099 41.389291 15.129862 42.261611 15.833984 43.425781 L 23.878906 32.697266 C 22.534192 32.339516 21.399676 31.466627 20.695312 30.302734 z M 47.296875 32.691406 L 45.609375 34.943359 L 52.029297 44.574219 C 52.436629 45.184019 53.261055 45.34838 53.871094 44.941406 C 54.479684 44.534165 54.643923 43.711225 54.238281 43.101562 L 47.296875 32.691406 z M 39.185547 32.878906 C 36.976732 32.878906 35.201172 34.654467 35.201172 36.863281 C 35.201172 39.072096 36.976732 40.847656 39.185547 40.847656 C 41.394362 40.847656 43.169922 39.072096 43.169922 36.863281 C 43.169922 34.654467 41.394362 32.878906 39.185547 32.878906 z M 28.710938 34.669922 L 24.425781 40.384766 L 19.333984 42.082031 L 16.582031 45.751953 C 16.583229 45.767436 16.58292 45.783309 16.583984 45.798828 L 26.050781 42.642578 L 30.923828 36.144531 L 28.710938 34.669922 z M 11.291016 42.175781 C 9.082213 42.175781 7.3066406 43.955235 7.3066406 46.164062 C 7.3066406 48.372861 9.0822183 50.148438 11.291016 50.148438 C 13.499844 50.148438 15.275391 48.372865 15.275391 46.164062 C 15.275391 43.955231 13.499848 42.175781 11.291016 42.175781 z "
                 style="color:#000000;font-style:normal;font-variant:normal;font-weight:normal;font-stretch:normal;font-size:medium;line-height:normal;font-family:sans-serif;font-variant-ligatures:normal;font-variant-position:normal;font-variant-caps:normal;font-variant-numeric:normal;font-variant-alternates:normal;font-variant-east-asian:normal;font-feature-settings:normal;font-variation-settings:normal;text-indent:0;text-align:start;text-decoration:none;text-decoration-line:none;text-decoration-style:solid;text-decoration-color:#000000;letter-spacing:normal;word-spacing:normal;text-transform:none;writing-mode:lr-tb;direction:ltr;text-orientation:mixed;dominant-baseline:auto;baseline-shift:baseline;text-anchor:start;white-space:normal;shape-padding:0;shape-margin:0;inline-size:0;clip-rule:nonzero;display:inline;overflow:visible;visibility:visible;opacity:1;isolation:auto;mix-blend-mode:normal;color-interpolation:sRGB;color-interpolation-filters:linearRGB;solid-color:#000000;solid-opacity:1;vector-effect:none;fill:#ffffff;fill-opacity:1;fill-rule:nonzero;stroke:none;stroke-width:2.65673;stroke-linecap:round;stroke-linejoin:miter;stroke-miterlimit:10;stroke-dasharray:none;stroke-dashoffset:0;stroke-opacity:1;color-rendering:auto;image-rendering:auto;shape-rendering:auto;text-rendering:auto;enable-background:accumulate;stop-color:#000000;stop-opacity:1"
                 id="path4790" />
            </g>
            <g
               id="g4760" />
            <g
               id="g4764" />
            <g
               id="g4768">
              <g
                 style="opacity:1"
                 id="g4815" />
            </g>
            <g
               id="g4772">
              <g
                 style="opacity:1"
                 id="g4809" />
            </g>
            <g
               id="g4776">
              <g
                 style="opacity:1"
                 id="g4797" />
            </g>
            <g
               id="g4780">
              <g
                 style="opacity:1"
                 id="g4803" />
            </g>
          </g>
        </g>
      </g>
    </g>
  </g>
</svg>
